X:1
T:Little Night Music Mvt. 1
C:Wolfgang Amadeus Mozart
Q:280
M:4/4
L:1/8
K:G
[D2B2g2f2dd]z g2z | g d g b d''''',2 z2 | c,,'2z'' a c'2z z |||||
(5dcccc cBBB | BAAA GFEF |: 
[G4G,4] [GG,] G1/3F1/3G1/3 AF |: B4 B B/3A/3B/3 c A :| d4 e2 f2 :|
